dist/svg/static/gas-tank-level-half-small.svg

<svg xmlns="http://www.w3.org/2000/svg" width="24" height="24" viewBox="0 0 24 24"><g fill="none" stroke="currentColor" stroke-miterlimit="10"><path d="M11.5 3.5v16a1 1 0 0 0 1 1h9a1 1 0 0 0 1-1v-16c0-.578-.438-1-1-1h-9c-.562 0-1 .375-1 1zM21 17.5h-8 8zM21 14.5h-8 8zM21 11.5h-8 8z"/><path stroke-linecap="round" d="M5 5.5s-3.5 6.516-3.5 9 1 3 1 3 .545-3 2.5-3 2.5 3 2.5 3 1-.484 1-3c0-2.515-3.5-9-3.5-9z"/></g></svg>

<?xml version="1.0" encoding="UTF-8" standalone="no"?>
<svg width="24px" height="24px" viewBox="0 0 24 24" version="1.1" xmlns="http://www.w3.org/2000/svg" xmlns:xlink="http://www.w3.org/1999/xlink">
    <!-- Generator: sketchtool 46.2 (44496) - http://www.bohemiancoding.com/sketch -->
    <title>gas-tank-level-half-small</title>
    <desc>Created with sketchtool.</desc>
    <defs></defs>
    <g id="icons-published" stroke="none" stroke-width="1" fill="none" fill-rule="evenodd">
        <g id="briefing" transform="translate(-2948.000000, -666.000000)"></g>
        <g id="gas-tank-level-half-small" stroke="#000000">
            <path d="M11.5,3.5 L11.5,19.5 C11.5,20.1 11.9,20.5 12.5,20.5 L21.5,20.5 C22.1,20.5 22.5,20.1 22.5,19.5 L22.5,3.5 C22.5,2.9 22.1,2.5 21.5,2.5 L12.5,2.5 C11.9,2.5 11.5,2.9 11.5,3.5 Z M21,17.5 L13,17.5 L21,17.5 Z M21,14.5 L13,14.5 L21,14.5 Z M21,11.5 L13,11.5 L21,11.5 Z" id="Shape"></path>
            <path d="M5,5.5 C5,5.5 1.5,12 1.5,14.5 C1.5,17 2.5,17.5 2.5,17.5 C2.5,17.5 3,14.5 5,14.5 C7,14.5 7.5,17.5 7.5,17.5 C7.5,17.5 8.5,17 8.5,14.5 C8.5,12 5,5.5 5,5.5 Z" id="Shape" stroke-linecap="round"></path>
        </g>
    </g>
</svg>
